!!!COM:	Josquin des Prez
!!!CDT:	~1450-1521/08/27
!!!OPR:	Missa L'homme arm&eacute; super voces musicales
!!!ONM:	3
!!!OTL:	Credo
!!!AGN:	Mass; Credo
!!!SCT:	NJE 6.3
!!!SCA:	New Josquin Edition 6.3
!!!voices: 4
!!!voices-OPR:	4
**kern	**kern	**kern	**kern
*staff4	*staff3	*staff2	*staff1
*I"Bassus	*I"Tenor	*I"Altus	*I"Superius
*I'B	*I'T	*I'A	*I'S
*>A	*>A	*>A	*>A
*clefF4	*clefGv2	*clefGv2	*clefG2
*k[]	*k[]	*k[]	*k[]
*	*rscale:1/2	*	*
*M3/1	*M9/1	*M3/1	*M3/1
*met(O)	*met(O.)	*met(O)	*met(O)
!!primary-mensuration: met(O)
!!!OMD: Patrem
!!section: Patrem
=1-	=1-	=1-	=1-
0.r	0.r	1e	0.r
.	.	1f	.
.	.	1e	.
=2	=2-	=2	=2
0.r	0.r	2r	1e
.	.	1e	.
.	.	.	1f
.	.	2d\	.
.	.	2.c\	1e
.	.	8d\L	.
.	.	8e\J	.
=3	=3-	=3	=3
0.r	0.r	2f\	2d/
.	.	2.e\	2c/
.	.	.	1d
.	.	4d\	.
.	.	1d	.
.	.	.	1e
.	.	2c#i\	.
=4	=4	=4	=4
0.r	0.r	2d\	1d
.	.	2.G/	.
.	.	.	2B/
.	.	4F/	.
.	.	2E/	2c/
.	.	4D/	2d/
.	.	4E/	.
.	.	4F/	2d/
.	.	4G/	.
=5	=5-	=5	=5
0AA	0.r	2.A/	2c/
.	.	.	2.e/
.	.	4B\	.
.	.	2c\	.
.	.	.	4d/
.	.	2d\	1d
1AA	.	1e	.
.	.	.	2c#i/
=6	=6-	=6	=6
1D	0.r	1f	1d
2D\	.	2d\	2B/
2C/	.	2e\	2c/
1BB	.	2.f\	2d/
.	.	.	2d/
.	.	8e\L	.
.	.	8d\J	.
=7	=7	=7	=7
1AA	0E	2.c\	2.e/
.	.	8B/L	4d/
.	.	8A/J	.
1E	.	2G/	2e/
.	.	1A	2c/
1E	1E	.	1B
.	.	2G#i/	.
=8	=8-	=8	=8
0AA	0.A	2A/	1A
.	.	2.c\	.
.	.	.	1e
.	.	4B\	.
.	.	4A/	.
.	.	4G/	.
1D	.	4F/	1f
.	.	4E/	.
.	.	2D/	.
=9	=9-	=9	=9
2.AA/	1A	1C	1e
4BB/	.	.	.
2C/	0G	1r	2e/
2D\	.	.	2d/
1E	.	1G	2d/
.	.	.	2c#i/
=10	=10	=10	=10
2D\	0F	2.A/	1d
2.F\	.	.	.
.	.	4B\	.
.	.	2c\	1r
4E\	.	.	.
4D\	.	1d	.
4BB/	.	.	.
4C/	1E	.	1r
4D\	.	.	.
2AA/	.	2c#i\	.
=11	=11-	=11	=11
1D	0.F	1d	2d/
.	.	.	2.a/
1r	.	2.A/	.
.	.	.	4b\
.	.	.	1cc
.	.	4B\	.
1A	.	2c\	.
.	.	2d\	4b\
.	.	.	4a/
=12	=12-	=12	=12
2B\	0E	[0.e	2.g/
2.c\	.	.	.
.	.	.	4e/
.	.	.	4g/
4B\	.	.	4a/
2G\	.	.	4b\
.	.	.	2cc\
1A	1r	.	.
.	.	.	4b\
.	.	.	2a/
=13	=13	=13	=13
0E	1B	1e]	1g
.	1B	2r	2r
.	.	2E/	2.g/
2r	1E	2.G/	.
.	.	.	4f/
[2G\	.	.	2e/
.	.	4A/	.
=14	=14-	=14	=14
4G\]	1r	2B\	2d/
4F\	.	.	.
2E\	.	2c\	2e/
2D\	0B	2d\	2r
2E\	.	2.G/	2.g/
2r	.	.	.
.	.	4A/	4f/
[2G\	.	2B\	4e/
.	.	.	4d/
=15	=15-	=15	=15
4G\]	1B	2.E/	4e/
4F\	.	.	4d/
4E\	.	.	2.g/
4D\	.	4F/	.
4E\	1.B	4G/	.
4D\	.	4A/	4f/
1G	.	4B\	2e/
.	.	4c\	.
.	.	4d\	2d/
.	.	4B\	.
2A\	2A/	[2e\	[2a/
=16	=16	=16	=16
1E	1B	1e]	2a/]
.	.	.	2g/
2.F\	1.A	0c	2.a/
4E\	.	.	4g/
2F\	.	.	2f/
2C/	2G/	.	2e/
=17	=17-	=17	=17
2D\	2F/	1A	4f/
.	.	.	4d/
2C/	2E/	.	2e/
2D\	2F/	2r	2A/
2C/	2E/	2c\	1e
1D	1F	2B\	.
.	.	2A/	2d/
=18	=18-	=18	=18
1AA	0.E	2.c\	2.e/
.	.	8B/L	4f/
.	.	8A/J	.
1r	.	4B\	4g/
.	.	4c\	4a/
.	.	4d\	4b\
.	.	2e\	2cc\
1r	.	.	.
.	.	4c\	2a/
.	.	2B\	.
.	.	.	4g#i/
=19	=19	=19	=19
*	*M6/1	*	*
*	*met(C.)	*	*
0.r	0.r	2A/	1a
.	.	2.d\	.
.	.	.	2r
.	.	4A/	.
.	.	2d\	2f/
.	.	2c\	2e/
.	.	[2d\	2d/
=20	=20-	=20	=20
0.r	0.r	4d\]	2.f/
.	.	4A/	.
.	.	2d\	.
.	.	.	8e/L
.	.	.	8d/J
.	.	4c\	4e/
.	.	4d\	4f/
.	.	4e\	4g/
.	.	2f\	2a/
.	.	2d\	4f/
.	.	.	2e/
.	.	4c#i\	.
=21	=21	=21	=21
0D	0.r	1.d	1d
.	.	.	2r
.	.	4c\	1a
.	.	4B\	.
1D	.	2A/	.
.	.	2d\	2f/
=22	=22-	=22	=22
0C	0e	2G/	2g/
.	.	2.A/	1c
.	.	4G/	.
.	.	2E/	1g
1C	1e	1c	.
.	.	.	2e/
=23	=23	=23	=23
1D	0d	2A/	2f/
.	.	2.B-i\	1d
0BB-i	.	.	.
.	.	4A/	.
.	.	2F/	2f/
.	1d	2G/	4e/
.	.	.	2d/
.	.	2D/	.
.	.	.	8c/L
.	.	.	8B/J
=24	=24-	=24	=24
0.AA	1e	2r	2c/
.	.	2A/	2A/
.	0c	2A/	0e
.	.	2A/	.
.	.	2.E/	.
.	.	4F/	.
=25	=25	=25	=25
0.r	0.B	4G/	0.r
.	.	4A/	.
.	.	1G	.
.	.	4F/	.
.	.	4E/	.
.	.	2D/	.
.	.	2G/	.
=26	=26-	=26	=26
2r	0e	2C/	0.r
2A\	.	1c	.
2A\	.	.	.
2A\	.	4B\	.
.	.	4A/	.
2.E\	1e	2c\	.
.	.	2B\	.
4F\	.	.	.
=27	=27	=27	=27
4G\	0d	2r	0.r
4A\	.	.	.
1G	.	1B	.
4F\	.	4A/	.
4E\	.	4G/	.
1D	1d	2A/	.
.	.	2B\	.
=28	=28-	=28	=28
0.A	1e	1.c	2r
.	.	.	2a/
.	0c	.	2a/
.	.	4B\	2a/
.	.	4A/	.
.	.	1c	2.e/
.	.	.	4f/
=29	=29	=29	=29
0.G	0.B	1.d	4g/
.	.	.	4a/
.	.	.	1g
.	.	4c\	4f/
.	.	4B\	4e/
.	.	2d\	2d/
.	.	2G/	2g/
=30	=30-	=30	=30
0A	0.e	2r	1c
.	.	1c	.
.	.	.	1r
.	.	4B\	.
.	.	4A/	.
2.G\	.	2B\	1g
.	.	2c\	.
4F\	.	.	.
=31	=31	=31	=31
0D	0.f	0d	1a
.	.	.	1a
1F	.	2.A/	1a
.	.	4B\	.
=32	=32-	=32	=32
1C	1e	1c	2g/
.	.	.	2cc\
1D	1d	2.F/	2b\
.	.	.	2a/
.	.	4G/	.
1AA	1c	1A	2.cc\
.	.	.	4b\
=33	=33	=33	=33
0E	0.B	2r	1g
.	.	2.E/	.
.	.	.	2r
.	.	4F/	.
.	.	4G/	2e/
.	.	4E/	.
2r	.	4G/	2d/
.	.	4A/	.
2E\	.	4B\	2g/
.	.	4c\	.
=34	=34-	=34	=34
2D\	0.r	2d\	2f/
2G\	.	2B\	2d/
2F\	.	2A/	2r
2D\	.	2d\	2f/
2r	.	2c\	2e/
2F\	.	2A/	2a/
=35	=35	=35	=35
*	*M9/1	*	*
*	*met(O.)	*	*
2E\	0.r	2r	4g/
.	.	.	4f/
2A\	.	2c\	2e/
4G\	.	2B\	2r
4F\	.	.	.
2E\	.	2e\	2g/
2r	.	4d\	2a/
.	.	4c\	.
2G\	.	2B\	2g/
=36	=36-	=36	=36
2A\	0.r	2r	2e/
2G\	.	2d\	2r
2E\	.	2e\	2.g/
2.G\	.	2d\	.
.	.	.	4f/
.	.	2B\	4d/
4F\	.	.	4e/
2D\	.	[2d\	[2f/
=37	=37-	=37	=37
2E\	0.r	4d\]	4f/]
.	.	4c\	4e/
2.F\	.	2.A/	2c/
.	.	.	2d/
4E\	.	4B\	.
2C/	.	2c\	2e/
2D\	.	4B\	4d/
.	.	2A/	4c/
2E\	.	.	2B/
.	.	4G#i/	.
=38	=38	=38	=38
1AA	0.E	1A	2A/
.	.	.	2c/
2r	.	2G/	2B/
2AA/	.	2.A/	2A/
1AA	.	.	2.c/
.	.	4E/	.
.	.	2c\	.
.	.	.	4B/
=39	=39-	=39	=39
2r	0.E	2B\	2G/
2AA/	.	2A/	1A
1AA	.	2.c\	.
.	.	.	2cc\
.	.	4B\	.
2r	.	2G/	2b\
2AA/	.	[2A/	2a/
=40	=40-	=40	=40
1AA	0.E	2A/]	2.cc\
.	.	2c\	.
.	.	.	4b\
2r	.	2B\	2g/
2AA/	.	2A/	1a
1E	.	1B	.
.	.	.	2g#i/
=41	=41	=41	=41
2AA/	0.A	1A	0.a
2.F\	.	.	.
.	.	2r	.
4E\	.	.	.
2D\	.	2f\	.
2C/	.	2e\	.
[2D\	.	[2f\	.
=42	=42-	=42	=42
2D\]	1A	4f\]	0.r
.	.	4e\	.
2F\	.	2d\	.
2E\	0G	2c\	.
2D\	.	1d	.
1E	.	.	.
.	.	2c#i\	.
=43	=43-	=43	=43
0.D	0.F	0d	2.a/
.	.	.	4a/
.	.	.	2a/
.	.	.	2a/
.	.	1A	1a
=44	=44	=44	=44
0.r	0.E	2.e\	1g
.	.	4e\	.
.	.	2e\	2g/
.	.	2e\	2g/
.	.	1e	2g/
.	.	.	2g/
=45	=45-	=45	=45
2.F\	0.r	2d\	2a/
.	.	2c\	1cc
4F\	.	.	.
2F\	.	0A	.
2F\	.	.	2b\
1F	.	.	1a
=46	=46-	=46	=46
1E	0.B	1e	0.g
2r	.	2d\	.
2.E\	.	2e\	.
.	.	2r	.
4D\	.	.	.
4E\	.	[2E/	.
4F\	.	.	.
=47	=47	=47	=47
2.G\	0.B	4E/]	2.e/
.	.	4D/	.
.	.	4E/	.
4F\	.	4F/	4d/
4E\	.	2G/	4e/
4D\	.	.	4f/
2.E\	.	2.E/	2.g/
4D\	.	4F/	4f/
2BB/	.	2G/	2d/
=48	=48-	=48	=48
1AA	0.E	1A	2.c/
.	.	.	8B/L
.	.	.	8A/J
1r	.	2B\	2G/
.	.	2.c\	2.e/
1r	.	.	.
.	.	4B\	8d/L
.	.	.	8c/J
.	.	2G/	2B/
=49	=49-	=49	=49
0.r	0.r	2A/	4A/
.	.	.	2a/
.	.	2F/	.
.	.	.	8g/L
.	.	.	8f/J
.	.	2G/	4e/
.	.	.	4d/
.	.	2B-i\	1g
.	.	1A	.
.	.	.	2f#i/
=50	=50	=50	=50
2r	0.B	1G	1g
1E	.	.	.
.	.	1r	2e/
2D\	.	.	2f/
2E\	.	1r	2.g/
2F\	.	.	.
.	.	.	4f/
=51	=51-	=51	=51
2.G\	0.B	0.r	2e/
.	.	.	2d/
4F\	.	.	.
2E\	.	.	2e/
2D\	.	.	2f/
2E\	.	.	2.g/
2F\	.	.	.
.	.	.	4f/
=52	=52-	=52	=52
1G	0.B	2E/	2e/
.	.	2.G/	2d/
2E\	.	.	2g/
.	.	4F/	.
2F\	.	2D/	2f/
1G	.	1E	4e/
.	.	.	4d/
.	.	.	2B/
=53	=53	=53	=53
1A	0.A	2r	1c
.	.	2.A/	.
1r	.	.	2r
.	.	4B\	.
.	.	4c\	2.A/
.	.	4A/	.
2r	.	4c\	.
.	.	4d\	4B/
[2AA/	.	[2e\	4c/
.	.	.	4A/
=54	=54-	=54	=54
4AA/]	1A	2e\]	4c/
4BB/	.	.	4d/
4C/	.	4d\	4e/
4D\	.	4c\	4f/
4E\	0G	2.B\	2.g/
4F\	.	.	.
1G	.	.	.
.	.	4c\	4f/
.	.	4d\	2.d/
.	.	4e\	.
4F\	.	[2d\	.
4E\	.	.	4e/
=55	=55-	=55	=55
1.D	0.F	2d\]	4f/
.	.	.	4g/
.	.	4c\	1f
.	.	4B\	.
.	.	2.A/	.
4C/	.	.	4e/
4BB/	.	4B\	4d/
2.AA/	.	4c\	2c/
.	.	4d\	.
.	.	[2c\	2A/
4BB/	.	.	.
=56	=56	=56	=56
4C/	0.E	2c\]	2.e/
4D\	.	.	.
1C	.	4B\	.
.	.	4A/	4f/
.	.	2.G/	4g/
.	.	.	4a/
4BB/	.	.	1g
4AA/	.	4A/	.
2GG/	.	2B-i\	.
2AA/	.	4A/	4f/
.	.	4G/	4e/
=57	=57-	=57	=57
2BB-/	0.r	2F/	2d/
4AA/	.	2G/	2e/
4GG/	.	.	.
2FF/	.	2A/	2f/
2GG/	.	4G/	4e/
.	.	4F/	2d/
1AA	.	1E	.
.	.	.	8c#i/L
.	.	.	8B/J
.	.	.	2c#i/
=58	=58-	=58	=58
0.Dl	0.r	0.Dl	0.dl
*	*rscale:1	*	*
!!LO:LB:g=z
=59||	=59||	=59||	=59||
*>B	*>B	*>B	*>B
*clefF4	*clefGv2	*clefGv2	*clefG2
*k[]	*k[]	*k[]	*k[]
*	*rscale:1/2	*	*
*M2/1	*M9/1	*M2/1	*M2/1
*met(C|)	*met(O.)	*met(C|)	*met(C|)
!!primary-mensuration: met(C|)
!!!OMD: Et incarnatus est
!!section: Et incarnatus est
!	!LO:TX:X=-20:Z=6:t=Canon&colon; Tenor Et Incarnatus Verte cito	!	!
!	!LO:N:vis=1.	!	!
0D	0r	1.A	0f
.	.	2B\	.
=60	=60-	=60	=60
1C	1ryy	1c	1e
!	!LO:N:vis=1.	!	!
1C	1r	1c	1e
=61	=61-	=61	=61
1D	0ryy	1A	1f
1D	.	1d	1d
=62	=62-	=62	=62
!	!LO:N:vis=1.	!	!
0AA	[y0E	0c	0e
=63	=63-	=63	=63
!LO:N:vis=0	!	!LO:N:vis=0	!LO:N:vis=0
1r	1E]yy	1r	1r
=-	=	=-	=-
!	!LO:N:vis=1.	!	!
1ryy	[y1F	1ryy	1ryy
=64	=64-	=64	=64
0D	0F]yy	1.A	0f
.	.	2B\	.
=65	=65-	=65	=65
1C	1G	1c	1e
!	!LO:N:vis=1	!	!
1C	[y1A	1c	1e
=66	=66-	=66	=66
1D	1A]yy	1A	1f
!	!LO:N:vis=1.	!	!
1D	[y1A	1d	1d
=67	=67-	=67	=67
0AA	0A]yy	2c\	1e
.	.	2A/	.
.	.	2.c\	2r
.	.	.	2e/
.	.	4B\	.
=68	=68	=68	=68
!	!LO:N:vis=1.	!	!
1r	[y0B	0G	1g
1E	.	.	1g
=69	=69-	=69	=69
1G	1B]yy	1r	1e
!	!LO:N:vis=1.	!	!
1G	[y1B	1E	2r
.	.	.	[2g/
=70	=70-	=70	=70
1E	0B]yy	1G	4g/]
.	.	.	4f/
.	.	.	1e
2r	.	1G	.
[2G\	.	.	2d/
=71	=71-	=71	=71
!	!LO:N:vis=1.	!	!
4G\]	[y0B	2E/	1e
4E\	.	.	.
1E	.	2.G/	.
.	.	.	1r
.	.	4E/	.
2D\	.	2F/	.
=72	=72-	=72	=72
1E	1B]yy	4G/	2r
.	.	4E/	.
!	!	!LO:N:vis=2.	!LO:N:vis=2.
.	.	[y2e\	[y2g/
=-	=	=-	=-
!	!LO:N:vis=1.	!	!
2r	1r	4e\]yy	4g/]yy
.	.	4d\	4f/
[2G\	.	2B\	2d/
=73	=73-	=73	=73
4G\]	0ryy	2c\	2e/
4F\	.	.	.
2D\	.	2d\	2f/
1E	.	2B\	[1g
.	.	[2e\	.
=74	=74-	=74	=74
!	!LO:N:vis=1.	!	!
1r	[y0E	4e\]	2g/]
.	.	4d\	.
.	.	2B\	2e/
1E	.	1c	1e
=75	=75-	=75	=75
1.G	1E]yy	1B	1r
!	!LO:N:vis=1.	!	!
.	[y1B	1E	2r
2E\	.	.	[2g/
=76	=76-	=76	=76
1E	0B]yy	1.G	4g/]
.	.	.	4f/
.	.	.	2e/
2r	.	.	2d/
[2G\	.	2E/	2e/
=77	=77	=77	=77
!	!LO:N:vis=1.	!	!
4G\]	[y0B	1E	2r
4E\	.	.	.
1E	.	.	2.g/
.	.	1r	.
.	.	.	4e/
2D\	.	.	2f/
=78	=78-	=78	=78
1E	1B]yy	2r	2g/
.	.	2.e\	4e/
.	.	.	4f/
!	!LO:N:vis=1.	!	!
2r	1r	.	4g/
.	.	4d\	4a/
[2G\	.	2B\	[2b\
=79	=79-	=79	=79
4G\]	0ryy	2c\	4b\]
4F\	.	.	4a/
2D\	.	2d\	1a
1E	.	1B	.
.	.	.	2g#i/
=80	=80-	=80	=80
!	!LO:N:vis=1.	!	!
0AA	[y0E	0A	1a
.	.	.	1cc
=81	=81-	=81	=81
1r	1E]yy	1G	1b
=-	=	=-	=-
!	!LO:N:vis=1.	!	!
1A	[y1F	1A	2a/
.	.	.	[2cc\
=82	=82-	=82	=82
1A	0F]yy	1.c	4cc\]
.	.	.	4b\
.	.	.	4a/
.	.	.	4g/
1A	.	.	2a/
.	.	4B\	2cc\
.	.	4A/	.
=83	=83-	=83	=83
1E	1G	0e	1b
!	!LO:N:vis=1	!	!
[1c	[y1A	.	2a/
.	.	.	[2cc\
=84	=84-	=84	=84
1c]	1A]yy	1.e	4cc\]
.	.	.	4b\
.	.	.	4a/
.	.	.	4g/
!	!LO:N:vis=1.	!	!
1c	[y1A	.	2a/
.	.	2e\	[2cc\
=85	=85-	=85	=85
1c	0A]yy	1e	4cc\]
.	.	.	4b\
.	.	.	4a/
.	.	.	4g/
1c	.	1e	1a
=86	=86	=86	=86
!	!LO:N:vis=1.	!	!
2B\	[y0E	0e	0g
1c	.	.	.
4B\	.	.	.
4A\	.	.	.
=87	=87-	=87	=87
[0G	1E]yy	0e	2r
.	.	.	2.g/
!	!LO:N:vis=1.	!	!
.	[y1E	.	.
.	.	.	4f/
.	.	.	4e/
.	.	.	4d/
=88	=88-	=88	=88
0G]	0E]yy	2r	2e/
.	.	2.g\	2c/
.	.	.	1B
.	.	4f\	.
.	.	4e\	.
.	.	4d\	.
=89	=89-	=89	=89
!	!LO:N:vis=1.	!	!
0r	[y0E	2e\	2r
.	.	2c\	2.g/
.	.	1B	.
.	.	.	4f/
.	.	.	4e/
.	.	.	4d/
=90	=90-	=90	=90
!LO:N:vis=0	!	!	!
1r	1E]yy	2r	2e/
!	!	!LO:N:vis=2.	!
.	.	[y2g\	2c/
=-	=	=-	=-
!	!LO:N:vis=1.	!	!
1ryy	1r	4g\]yy	2B/
.	.	4f\	.
.	.	4e\	[2c/
.	.	4d\	.
=91	=91-	=91	=91
0r	0ryy	2e\	4c/]
.	.	.	4A/
.	.	2c\	1a
.	.	1B	.
.	.	.	2g#i/
=92	=92-	=92	=92
!	!LO:N:vis=1.	!	!
0r	0r	1A	2a/
.	.	.	2.cc\
.	.	2r	.
.	.	.	4b\
.	.	[2c\	4a/
.	.	.	4g/
=93	=93-	=93	=93
0r	1ryy	4c\]	2a/
.	.	4B\	.
.	.	4A/	2f/
.	.	4G/	.
!	!LO:N:vis=1.	!	!
.	1r	2A/	2e/
.	.	2F/	2a/
=94	=94-	=94	=94
0r	0ryy	2E/	2g/
.	.	2A/	1e
.	.	2G/	.
.	.	2E/	[2g/
=95	=95	=95	=95
*	*M6/1	*	*
*	*met(C.)	*	*
!	!LO:N:vis=1.	!	!
1r	0r	2G/	4g/]
.	.	.	4e/
.	.	2A/	1e
1A	.	1F	.
.	.	.	2d/
=96	=96-	=96	=96
2.G\	1ryy	0E	0e
4F\	.	.	.
!	!LO:N:vis=1.	!	!
4E\	[y1B	.	.
4D\	.	.	.
[2E\	.	.	.
=97	=97-	=97	=97
2E\]	0B]yy	1r	0r
4D\	.	.	.
4C/	.	.	.
2BB/	.	2r	.
2E\	.	[2e\	.
=98	=98	=98	=98
2AA/	1c	2e\]	0r
2A\	.	2.f\	.
2F\	1d	.	.
.	.	4d\	.
2G\	.	[2d\	.
=99	=99-	=99	=99
1E	1e	2d\]	1r
.	.	2c#i\	.
!	!LO:N:vis=1.	!	!
[1D	[y1f	1d	1a
=100	=100-	=100	=100
0D]	0f]yy	1A	1a
.	.	1d	1a
=101	=101	=101	=101
!	!LO:N:vis=1.	!	!
0A	[y0e	1.c	0a
.	.	4B\	.
.	.	4A/	.
=102	=102-	=102	=102
0E	1e]yy	2c\	[0g
.	.	2B\	.
!	!LO:N:vis=1.	!	!
.	[y1B	1e	.
=103	=103-	=103	=103
0G	0B]yy	0d	0g_
=104	=104	=104	=104
0C	1c	0c	0g]
.	1e	.	.
=105	=105-	=105	=105
0G	1d	0B	1r
!	!LO:N:vis=1	!	!
.	[y1d	.	1g
=106	=106-	=106	=106
1F	1d]yy	1r	1a
1E	1e	1B	1g
=107	=107	=107	=107
!	!LO:N:vis=1.	!	!
0A	[y0e	1.c	0a
.	.	4B\	.
.	.	4A/	.
=108	=108-	=108	=108
[0E	1e]yy	2c\	0g
.	.	2B\	.
!	!LO:N:vis=1.	!	!
.	[y1B	[1e	.
=109	=109-	=109	=109
0E]	0B]yy	0e]	1r
.	.	.	1g
=110	=110	=110	=110
0r	1c	0r	1a
.	1e	.	2g/
.	.	.	2cc\
=111	=111-	=111	=111
0r	1d	0r	2b\
.	.	.	2.a/
!	!LO:N:vis=1	!	!
.	[y1d	.	.
.	.	.	4g/
.	.	.	4f/
.	.	.	4e/
=112	=112-	=112	=112
0r	1d]yy	1r	1f
.	1e	1A	1e
=113	=113	=113	=113
!	!LO:N:vis=1.	!	!
2r	[y0e	1c	2r
2A\	.	.	2e/
2G\	.	2B\	2g/
2A\	.	[2c\	2e/
=114	=114-	=114	=114
2E\	1e]yy	4c\]	2g/
.	.	4B\	.
2A\	.	2c\	2a/
!	!LO:N:vis=1.	!	!
2G\	1r	2B\	2b\
[2A\	.	2A/	[2cc\
=115	=115-	=115	=115
2A\]	0ryy	0e	2cc\]
4G\	.	.	4b\
4F\	.	.	4a/
1E	.	.	1g
=116	=116	=116	=116
!	!LO:N:vis=1.	!	!
2r	0r	2r	2r
2A\	.	2c\	2e/
2G\	.	2B\	2g/
2A\	.	[2e\	2e/
=117	=117-	=117	=117
2E\	1ryy	4e\]	2g/
.	.	4d\	.
2A\	.	4c\	2a/
.	.	4B\	.
!	!LO:N:vis=1.	!	!
2G\	1r	2d\	2b\
[2A\	.	2c\	[2cc\
=118	=118-	=118	=118
2A\]	0ryy	1A	4cc\]
.	.	.	4b\
4G\	.	.	1a
4F\	.	.	.
1E	.	1B	.
.	.	.	2g#i/
=119	=119	=119	=119
*	*M9/1	*	*
*	*met(O.)	*	*
0AA	0E	0A	0a
=120	=120-	=120	=120
2r	1F	2r	0r
2D\	.	2A/	.
2C/	2E/	2A/	.
2D\	2F/	2A/	.
=121	=121-	=121	=121
1AA	2E/	1c	2r
.	2F/	.	2a/
1r	2G/	2B\	2b\
!	!LO:N:vis=2.	!	!
.	[y2A/	[2A/	[2cc\
=122	=122-	=122	=122
1r	1A]yy	4A/]	4cc\]
.	.	4G/	4b\
.	.	2F/	2a/
2r	1B	1E	1g
2E\	.	.	.
=123	=123-	=123	=123
2F\	2A/	2r	1r
2G\	[2B\	2E/	.
=-	=	=-	=-
1E	1B]	2G/	2r
.	.	2G/	2e/
=124	=124-	=124	=124
2r	1B	1E	2g/
2E\	.	.	2g/
!	!LO:N:vis=1	!	!
2G\	[y1B	2r	1e
2G\	.	2E/	.
=125	=125-	=125	=125
1E	1B]yy	2G/	2r
.	.	2G/	2e/
2r	1r	1E	2g/
[2G\	.	.	2g/
=126	=126-	=126	=126
4G\]	1E	0r	2e/
4F\	.	.	.
2E\	.	.	2g/
2D\	1B	.	2f/
[2E\	.	.	[2g/
=127	=127-	=127	=127
2E\]	1B	0r	4g/]
.	.	.	4e/
2G\	.	.	1e
1F	1r	.	.
.	.	.	2d/
=128	=128	=128	=128
!	!LO:N:vis=1.	!	!
0r	[y0E	1e	2e/
.	.	.	2.g/
.	.	1e	.
.	.	.	4a/
.	.	.	4b\
.	.	.	4cc\
=129	=129-	=129	=129
0r	1E]yy	1e	2b\
.	.	.	2.cc\
!	!LO:N:vis=1	!	!
.	[y1F	1c	.
.	.	.	4b\
.	.	.	[2a/
=130	=130-	=130	=130
0r	1F]yy	1d	2a/]
.	.	.	4g/
.	.	.	4f/
.	1E	1e	1g
=131	=131-	=131	=131
!	!LO:N:vis=1.	!	!
1r	[y0F	1r	1r
1D	.	1A	1a
=132	=132-	=132	=132
1D	1F]yy	1d	1a
=-	=	=-	=-
1BB	1G	1d	1b
=133	=133-	=133	=133
2AA/	0A	2c\	2e/
2D\	.	2d\	2f/
2C/	.	2e\	2e/
[2F\	.	[2f\	[2a/
=134	=134-	=134	=134
4F\]	0A	2f\]	2a/]
4E\	.	.	.
2C/	.	2e\	2g/
1D	.	1d	1f
=135	=135-	=135	=135
1r	1E	[0cl	[0el
!	!LO:N:vis=1.	!	!
1AA	[y1E	.	.
=136	=136-	=136	=136
0AAl	0E]yy	0c]	0e]
*	*rscale:1	*	*
!!LO:LB:g=z
=137||	=137||	=137||	=137||
*>C	*>C	*>C	*>C
*clefF4	*clefGv2	*clefGv2	*clefG2
*k[]	*k[]	*k[]	*k[]
*M2/1	*M9/2	*M2/1	*M2/1
*met(C|)	*met(O.)	*met(C|)	*met(C|)
!!primary-mensuration: met(C|)
!!section: Confiteor
!!!OMD: Confiteor
!	!LO:TX:Z=6:t=Canon&colon; Tenor. Confiteor&colon; Reverte citius	!	!
0r	1.r	0r	1d
.	.	.	2d/
!	!LO:N:vis=1.	!	!
.	2r	.	[2g/
=138	=138-	=138	=138
0r	1ryy	1r	4g/]
.	.	.	4f/
.	.	.	4e/
.	.	.	4d/
!	!LO:N:vis=1.	!	!
.	1r	1A	2f/
.	.	.	[2e/
=139	=139-	=139	=139
!LO:N:vis=0	!	!	!
2r	2ryy	2A/	2e/]
=-	=	=-	=-
!	!LO:N:vis=1.	!LO:N:vis=2.	!
1.ryy	1.r	[y2d\	2d/
.	.	4d\]yy	2f/
.	.	4c\	.
.	.	4B\	2g/
.	.	4A/	.
=140	=140-	=140	=140
0r	1.r	2c\	2a/
.	.	2d\	2b\
.	.	2B\	2g/
!	!LO:N:vis=1.	!	!
.	2r	[2e\	[2cc\
=141	=141-	=141	=141
!LO:N:vis=0	!	!	!
1r	1ryy	4e\]	4cc\]
.	.	4d\	4b\
!	!	!	!LO:N:vis=1
.	.	2c\	[y2a
=-	=	=-	=-
1ryy	1E	1B	2a]yy
.	.	.	2g#i/
=142	=142-	=142	=142
1AA	2E/	4A/	0a
.	.	4B\	.
.	1.A	4c\	.
.	.	4d\	.
2AA/	.	2e\	.
[2D\	.	[2f\	.
=143	=143-	=143	=143
!	!	!	!LO:N:vis=0
2D\]	2A/	2f\]	1.r
2BB/	1G	2d\	.
2C/	.	2e\	.
=-	=	=-	=-
!	!LO:N:vis=1	!	!
[2D\	[y2F/	2f\	2ryy
=144	=144-	=144	=144
4D\]	2F/]yy	2d\	1r
4BB/	.	.	.
2C/	2E/	2e\	.
!	!LO:N:vis=1.	!	!
1D	[y1F	2r	1a
.	.	2A/	.
=145	=145-	=145	=145
2r	2F/]yy	2.c\	2a/
2AA/	1E	.	1cc
.	.	4d\	.
2.C/	.	[1e	.
.	2r	.	4b\
4D\	.	.	4a/
=146	=146	=146	=146
2.E\	2B\	2e\]	1.g
.	2B\	4d\	.
4F\	.	4c\	.
[1G	2E/	[1B	.
.	2r	.	4f/
.	.	.	4e/
=147	=147-	=147	=147
2G\]	1B	2B\]	2d/
4F\	.	2c\	2e/
4E\	.	.	.
1D	2B\	1d	2f/
!	!LO:N:vis=2.	!	!
.	[y2B\	.	4e/
.	.	.	4f/
=148	=148-	=148	=148
!LO:N:vis=1	!	!LO:N:vis=1	!
[y2E	4B\]yy	[y2G\	4g/
.	4A/	.	4f/
=-	=	=-	=-
2E]yy	2B\	2G\]yy	4e/
.	.	.	4d/
1AA	2.A/	2r	1e
.	.	2c\	.
.	4G/	.	.
=149	=149-	=149	=149
1D	4F/	2d\	2d/
.	4E/	.	.
.	4F/	2A/	2.a/
.	4E/	.	.
2r	2F/	2.c\	.
.	.	.	4b\
!	!LO:N:vis=1.	!	!
2AA/	[y2E/	.	[2cc\
.	.	4d\	.
=150	=150-	=150	=150
!	!	!LO:N:vis=1.	!
2.C/	1E]yy	[y1e	2cc\]
.	.	.	4b\
4D\	.	.	4a/
=-	=	=-	=-
*	*M6/2	*	*
*	*met(C.)	*	*
!	!LO:N:vis=1.	!	!
2.E\	1r	2e]yy	[1g
.	.	4d\	.
4F\	.	4c\	.
=151	=151-	=151	=151
1.G	2ryy	1B	2g/]
.	1.r	.	4f/
.	.	.	4e/
.	.	2r	2.d/
4F\	.	[2d\	.
4E\	.	.	4e/
=152	=152	=152	=152
2D\	1.r	4d\]	4f/
.	.	4c\	4g/
2F\	.	2A/	1a
1E	.	1B	.
!	!LO:N:vis=1	!	!
.	[y2e\	.	2g#i/
=153	=153-	=153	=153
!	!	!	!LO:N:vis=1.
1AA	2e\]yy	2A/	[y1a
.	2e\	2e\	.
=-	=	=-	=-
[1D	1d	2f\	2a]yy
.	.	2d\	[2dd\
=154	=154-	=154	=154
2D\]	2d\	2f\	2dd\]
2AA/	2e\	2e\	1cc
2.C/	1c	2r	.
.	.	[2e\	4b\
4D\	.	.	4a/
=155	=155	=155	=155
2.E\	1.B	2e\]	2.g/
.	.	4d\	.
4F\	.	4c\	4a/
2G\	.	2B\	2b\
!	!LO:N:vis=1	!	!
2A\	[y2e\	[2A/	[2cc\
=156	=156-	=156	=156
1AA	2e\]yy	2A/]	4cc\]
.	.	.	4a/
!	!	!	!LO:N:vis=1
.	2e\	2e\	[y2a
=-	=	=-	=-
[1D	1d	2f\	2a]yy
.	.	2d\	[2dd\
=157	=157-	=157	=157
2D\]	2d\	2f\	2dd\]
2AA/	2e\	2e\	1cc
2.C/	1c	2r	.
.	.	[2e\	4b\
4D\	.	.	4a/
=158	=158	=158	=158
2.E\	1.B	2e\]	2.g/
.	.	4d\	.
4F\	.	4c\	4a/
2G\	.	2B\	2b\
!	!LO:N:vis=1.	!	!
2A\	[y2e\	2A/	[2cc\
=159	=159-	=159	=159
1AA	1e]yy	1c	4cc\]
.	.	.	4a/
!	!	!	!LO:N:vis=1
.	.	.	[y2a
=-	=	=-	=-
!	!LO:N:vis=1.	!	!
[1D	[y1f	1d	2a]yy
.	.	.	[2dd\
=160	=160-	=160	=160
2D\]	2f\]yy	2A/	2dd\]
2AA/	2e\	2c\	2cc\
2BB/	2d\	2d\	2b\
2C/	2c\	[2e\	[2a/
=161	=161	=161	=161
1D	1.B	4e\]	2a/]
.	.	4d\	.
.	.	2f\	4g#i/
.	.	.	4f#i/
1E	.	2.e\	1g#i
!	!LO:N:vis=1.	!	!
.	2r	.	.
.	.	4d\	.
=162	=162-	=162	=162
1AA	1ryy	4c\	2.a/
.	.	4B\	.
!	!	!LO:N:vis=1	!
.	.	[y2c	.
.	.	.	4g/
=-	=	=-	=-
*	*M9/2	*	*
*	*met(O.)	*	*
!	!LO:N:vis=1.	!	!
2AA/	1r	2c]yy	2e/
[2D\	.	2d\	2d/
=163	=163-	=163	=163
2D\]	2ryy	2.A/	1f
2D\	1.r	.	.
.	.	4B\	.
2C/	.	2c\	2e/
[2BB/	.	2F/	[2d/
=164	=164-	=164	=164
2BB/]	1.r	2G/	2d/]
2AA/	.	1A	2c/
!LO:N:vis=1	!	!	!LO:N:vis=1
[y2E	.	.	[y2B
=-	=	=-	=-
!	!LO:N:vis=1.	!	!
2E]yy	[y2E/	2G#i/	2B]yy
=165	=165-	=165	=165
1AA	1E]yy	2A/	4A/
.	.	.	4B/
.	.	1e	4c/
.	.	.	4d/
!	!LO:N:vis=1.	!	!
2r	[y1E	.	2.e/
2E\	.	2c\	.
.	.	.	4f/
=166	=166-	=166	=166
2E\	2E/]yy	2B\	2g/
2AA/	1.E	2A/	1a
2E\	.	1B	.
2E\	.	.	2g#i/
=167	=167	=167	=167
2AA/	1.A	4A/	0a
.	.	4B\	.
1A	.	4c\	.
.	.	4d\	.
.	.	2e\	.
2F\	2A/	[2d\	.
=168	=168-	=168	=168
1E	1G	2d\]	1r
.	.	2c#i\	.
!	!LO:N:vis=1.	!	!
1D	[y1F	2d\	1a
.	.	2A/	.
=169	=169-	=169	=169
!	!	!LO:N:vis=2.	!
2r	2F/]yy	[y2c\	2a/
=-	=	=-	=-
2AA/	1.E	4c\]yy	1cc
.	.	4d\	.
2.C/	.	1e	.
.	.	.	4b\
4D\	.	.	4a/
=170	=170-	=170	=170
2.E\	1.r	2r	1.g
.	.	1e	.
4F\	.	.	.
[1G	.	.	.
!	!LO:N:vis=1.	!	!
.	[y2B\	4d\	4f/
.	.	4c\	4e/
=171	=171-	=171	=171
2G\]	1B]yy	2.B\	2d/
4F\	.	.	2e/
4E\	.	4c\	.
=-	=	=-	=-
!	!LO:N:vis=1.	!	!
2D\	[y1B	2d\	2f/
[2E\	.	2B\	2g/
=172	=172-	=172	=172
4E\]	2B\]yy	1.e	2e/
4D\	.	.	.
4E\	1.E	.	1g
4F\	.	.	.
[1G	.	.	.
.	.	4d\	4f/
.	.	4c\	4e/
=173	=173-	=173	=173
2G\]	1.r	2.B\	2d/
4F\	.	.	2e/
4E\	.	4c\	.
2D\	.	2d\	2f/
=-	=	=-	=-
!	!LO:N:vis=1.	!	!
[2E\	[y2B\	2B\	2g/
=174	=174-	=174	=174
4E\]	1B]yy	1.e	2e/
4D\	.	.	.
4E\	.	.	1g
4F\	.	.	.
!	!LO:N:vis=1.	!	!
[1G	[y1B	.	.
.	.	4d\	4f/
.	.	4c\	4e/
=175	=175-	=175	=175
2G\]	2B\]yy	2.B\	2d/
4F\	1.B	.	2e/
4E\	.	4c\	.
2D\	.	2d\	2f/
2E\	.	2B\	2g/
=176	=176	=176	=176
2.AA/	1.A	1.e	2e/
.	.	.	2.a/
4BB/	.	.	.
2C/	.	.	.
.	.	.	4g/
2D\	2A/	2d\	[2f/
=177	=177-	=177	=177
2E\	1G	2B\	2f/]
2C/	.	2c\	2e/
!	!LO:N:vis=1.	!	!
1D	[y1F	2A/	2f/
.	.	2d\	2d/
=178	=178-	=178	=178
!LO:N:vis=2.	!	!	!LO:N:vis=1
[y2AA/	2F/]yy	4c\	[y2a/
.	.	4A/	.
=-	=	=-	=-
4AA/]yy	1.E	2.c\	2a/]yy
4BB/	.	.	.
4C/	.	.	2.g/
4D\	.	4B\	.
2E\	.	2G/	.
.	.	.	4f/
=179	=179-	=179	=179
2C/	1.r	2A/	4e/
.	.	.	4d/
2D\	.	2D/	1d
1AA	.	1E	.
!	!LO:N:vis=1.	!	!
.	2r	.	2c#i/
=180	=180-	=180	=180
[1Dl	1ryy	[1Dl	[1dl
=-	=	=-	=-
!	!LO:N:vis=1.	!	!
1D_	1r	1D_	1d_
=-	=-	=-	=-
0D]	0ryy	0D]	0d]
==	==	==	==
*-	*-	*-	*-
!!!RDF**kern: l=long note in original notation
!!!RDF**kern: i=editorial accidental
!!!ENC:	Jesse Rodin; Victoria Chang 2011/05/11
!!!SMS:	Vat 197
!!!END:	2011/05/11/
!!!EED:	Jesse Rodin
!!!EEV:	2012/10/25/
!!attribution-level@Jos: 1 (secure)
!!!ONB:	Translated from MusicXML and edited on 2011/09/12/ by Craig Sapp
!!muse2ps: T^@{OPR}^u^@{ONM}{. }@{OTL}^C^@{COM}\n@{SCT}^i2I100v92,90,90,90,150c85Q16
